X: 1
T: Fiddler's Loft Polka
C: Paul Milde 6/99
R: polka
Z: 2006 John Chambers <jc@trillian.mit.edu>
M: 4/4
L: 1/8
K: C
[| G2AG E2A2 | G2E2 D2C2 | G2AG  E2G2 | E2D2 D4   \
|  G2AG E2G2 | A2G2 c3d  | e2c2  cdcB | d2B2 c2   ||
|| G2AG E2G2 | A2G2 E4   | G2AG  E2D2 | C2D2 E4   \
|  G2AG E2G2 | c2d2 e2c2 | e2c2  cdcB | d2B2 c4   |]
[| e3d  c2e2 | f2d2 a2g2 | c'2g2 gagf | e2f2 g4   \
|  c3e  g2e2 | f2g2 a2b2 | c'2g2 gagf | e2d2 c4   ||
|| e3d  c2e2 | f2d2 a2g2 | c'2g2 gagf | e2f2 g2b2 \
|  c'3b g2f2 | g2f2 c3d  | e2de  f2e2 | d2B2 c4   |]
